X:1
T:Shout, for the Blessed Jesus Reigns
T:Text: Benjamin Beddome, 1769 Tune: T. Williams' Psalmodia Evangelica, 1789
T:LM TRURO www.hymnary.org/text/shout_for_the_great_redeemer_reigns
T:Shout, for the Blessed Jesus Reigns
T:This hymn is in the public domain.  You may freely use this score for personal and congregational worship.  If you reproduce the score, please credit Hymnary.org as the source. 
T:This hymn is in the public domain.  You may freely use this score for personal and congregational worship.  If you reproduce the score, please credit Hymnary.org as the source. 
Z:This hymn is in the public domain.  You may freely use this score for personal and congregational worship.  If you reproduce the score, please credit Hymnary.org as the source.
%%score ( 1 2 ) ( 3 4 )
L:1/8
M:2/2
K:C
V:1 treble nm="SOPRANO ALTO" snm="S. A."
V:2 treble 
V:3 bass nm="TENOR BASS" snm="T. B."
V:4 bass 
V:1
"^1""^2""^3""^4""^5" C4 E3 F | G6 G2 | A4 B4 | c6 G2 | c4 G4 | (F2 E2) (D2 C2) | F4 E4 | D6 D2 | %8
w: Shout, for the|bless- ed|Je- sus|reigns; through|dis- tant|lands * his *|tri- umphs|spread. And|
w: He calls his|cho- sen|from a-|far; they|all at|Zi- * on's *|gates ar-|rive. Those|
w: Gen- tiles and|Jews his|laws o-|bey. All|lands and|na- * tions *|of- ferings|bring and,|
w: Oh, may his|ho- ly|church in-|crease, his|Word and|Spir- * it *|still pre-|vail, while|
w: Loud hal- le-|lu- jahs|to the|Lamb from|all be-|low * and *|all a-|bove! In|
 G4 A4 | B6 d2 |1 (d2 c2) (B2 A2) | G6 G2 | G4 c4 | (D2 A2) (G2 F2) | E4 D4 | C8 |] %16
w: sin- ners,|freed from|end- * less *|pains, own|him their|Sav- * ior *|and their|Head.|
w: who were|dead in|sin * be- *|fore by|sov- ereign|grace _ are *|made a-|live.|
w: un- con-|strained, their|hom- * age *|pay to|their ex-|alt- * ed *|God and|King.|
w: an- gels|cel- e-|brate * his *|praise and|saints his|grow- * ing *|glo- ries|hail.|
w: loft- y|songs ex-|alt * his *|name, in|songs as|last- * ing *|as his|love.|
V:2
 C4 x3 F | x6 G2 | F4 F4 | E6 G2 | G4 E4 | C4 (B,2 C2) | B,4 C4 | B,6 D2 | D4 D4 | D6 D2 |1 %10
 E4 (D2 C2) | B,6 D2 | C4 E4 | (D2 F2) (E2 D2) | C4 B,4 | C8 |] %16
V:3
 C,4 E,3 F, | G,6 C2 | C4 G,4 | G,6 G,2 | G,4 C4 | C4 G,4 | G,4 G,4 | G,6 D,2 | G,4 ^F,4 | %9
 G,6 G,2 |1 G,4 (G,2 ^F,2) | G,6 B,2 | C4 G,4 | (A,2 F,2) (G,2 A,2) | G,4 (G,2 F,2) | E,8 |] %16
V:4
 C,4 E,3 F, | G,6 E,2 | F,4 D,4 | C,6 G,2 | E,4 C,4 | (A,2 G,2) (F,2 E,2) | D,4 C,4 | G,,6 D,2 | %8
 B,,4 D,4 | G,6 B,,2 |1 C,4 D,4 | G,,6 =F,2 | E,4 C,4 | (F,2 D,2) (E,2 F,2) | G,4 G,,4 | C,8 |] %16

